assets/img/promo/wcc/wind-bg-mobile.svg

<svg width="390" height="769" fill="none" xmlns="http://www.w3.org/2000/svg"><mask id="a" style="mask-type:alpha" maskUnits="userSpaceOnUse" x="0" y="0" width="390" height="769"><path fill="#D9D9D9" d="M0 0h390v769H0z"/></mask><g mask="url(#a)"><mask id="b" style="mask-type:alpha" maskUnits="userSpaceOnUse" x="0" y="-1" width="390" height="770"><path fill="#D9D9D9" d="M0-1h390v770H0z"/></mask><g mask="url(#b)"><path d="M513.5 1212c-165.628 0-324.472-64.48-441.588-179.25C-45.205 917.977-111 762.312-111 600c0-162.313 65.795-317.977 182.912-432.749C189.028 52.478 347.872-12 513.5-12v1224z" fill="#8ED760"/></g><g clip-path="url(#clip0_1205_49)"><path d="M205.253 392.086s-82.789 57.558-84.798 58.061c-2.008.502-5.504-2.251-6.006-3.256-.502-1.005 52.524-46.553 62.78-53.307 10.256-6.754 22.259-11.267 22.259-11.267l5.756 9.759.009.01z" fill="#D6D6D6" stroke="#26144D" stroke-width="1.5" stroke-linecap="round" stroke-linejoin="round"/><path d="M234.861 489.743c2.463 2.985 6.47 5.768 12.912 6.193 6.759.454 11.105-1.874 13.828-4.541l.02-5.025c-2.714 2.677-7.069 5.025-13.848 4.551-6.287-.434-10.266-3.072-12.738-5.981l-.183 4.793.009.01z" fill="#4DA4FF" stroke="#26144D" stroke-width="1.5" stroke-linecap="round" stroke-linejoin="round"/><path d="M236.484 446.031a123.362 123.362 0 0013.539-10.658c4.047-3.672 8.016-7.71 11.821-11.894l.183-54.177-23.013 8.01-2.53 68.709v.01z" fill="#999" stroke="#26144D" stroke-width="1.5" stroke-linecap="round" stroke-linejoin="round"/><path d="M235.045 484.95c2.472 2.909 6.441 5.546 12.737 5.981 6.78.464 11.135-1.874 13.849-4.551l.212-62.892c-3.805 4.184-7.774 8.213-11.82 11.895a124.76 124.76 0 01-13.539 10.657l-1.439 38.92v-.01z" fill="#D6D6D6" stroke="#26144D" stroke-width="1.5" stroke-linecap="round" stroke-linejoin="round"/><path d="M227.01 799.265s4.5 8.01 16.011 8.01c10.507 0 16.504-7.014 16.504-7.014l2.076-308.856c-2.723 2.667-7.069 4.995-13.829 4.541-6.441-.435-10.458-3.208-12.911-6.194l-7.851 309.523v-.01z" fill="#D6D6D6" stroke="#26144D" stroke-width="1.5" stroke-linecap="round" stroke-linejoin="round"/><path d="M227.639 383.66l17.382 8.175 77.536-50.051 12.013-29.035-.009-.029-106.922 70.94z" fill="#999" stroke="#26144D" stroke-width="1.5" stroke-linecap="round" stroke-linejoin="round"/><path d="M210.004 340.277l.492 8.85 1.507 27.19 15.635 7.343 106.922-70.94-9.493-17.992-31.018-13.759-13.472 7.518-2.404 7.333-.136.416-68.033 44.041z" fill="#D6D6D6" stroke="#26144D" stroke-width="1.5" stroke-linecap="round" stroke-linejoin="round"/><path d="M278.375 295.897L317.312 313l-3.506-10.513-32.766-14.261" fill="#999"/><path d="M278.375 295.897L317.312 313l-3.506-10.513-32.766-14.261" stroke="#26144D" stroke-width="1.5" stroke-linecap="round" stroke-linejoin="round"/><path d="M210.004 340.277l.492 8.85 10.005 14.416 16.523 1.266L317.312 313l-39.139-17.18-.136.416-68.033 44.041z" fill="#EFEFEF" stroke="#26144D" stroke-width="1.5" stroke-linecap="round" stroke-linejoin="round"/><path d="M189.744 385.573c12.911 21.953 38.579 9.856 45.513 6.03 4.307-1.614 7.059-6.242 7.059-13.218 0-12.407-8.701-27.49-19.449-33.683-5.698-3.295-10.825-3.421-14.379-.957-.02.01-.048.02-.068.049-5.089 3.053-31.375 20.184-18.676 41.789v-.01z" fill="#EFEFEF" stroke="#26144D" stroke-width="1.5" stroke-linecap="round" stroke-linejoin="round"/><path d="M245.774 386.076s.753-4.252.251-6.01c-.502-1.749-5.253-5.257-7.001-6.262-1.748-1.004-13.259 7.508-13.008 11.508.251 4 13.761 9.257 13.761 9.257l6.007-8.513-.01.02z" fill="#4DA4FF" stroke="#26144D" stroke-width="1.5" stroke-linecap="round" stroke-linejoin="round"/><path d="M242.52 383.322c-3.003.503-8.276 6.551-7.262 8.281 1.014 1.729 3.013 5.739 8.267 10.493 3.447 3.121 114.309 82.342 115.304 82.835.995.493 4.249-4.502 4.249-5.759 0-1.256-72.533-75.829-86.797-84.091-14.253-8.261-33.77-11.759-33.77-11.759h.009z" fill="#EFEFEF" stroke="#26144D" stroke-width="1.5" stroke-linecap="round" stroke-linejoin="round"/><path d="M215.008 330.518c2.752.753 5.253 13.517 4.5 15.015-.753 1.497-3.525 3.179-9.01 3.594-5.485.416-8.247.164-8.749-3.343-.502-3.507.251-15.015.251-15.015l13.008-.251z" fill="#4DA4FF" stroke="#26144D" stroke-width="1.5" stroke-linecap="round" stroke-linejoin="round"/><path d="M165.235 175.099c-1.748-.251-4.5-.754-5.002 1.005-.502 1.759 14.756 49.8 27.261 95.599 12.506 45.799 15.51 65.317 15.51 65.317s6.257 2 9.753-1.005c3.496-3.005 2.395-17.923-1.497-32.533-11.009-41.296-46.025-128.383-46.025-128.383z" fill="#EFEFEF" stroke="#26144D" stroke-width="1.5" stroke-linecap="round" stroke-linejoin="round"/><path d="M256.908 573.969c-.753 40.475-.753 80.11-.888 120.518m1.343-181.526c0 10.213 0 19.818-.222 30.601" stroke="#fff" stroke-width="1.5" stroke-linecap="round" stroke-linejoin="round"/><path d="M121.17 416.396c-20.714-36.466-33.49-77.357-33.49-114.315m228.001 178.85c-16.59 42.234-59.747 54.254-110.369 25.006-19.701-11.382-38.271-27.702-54.582-47.007m-11.269-239.568c18.792-3.836 41.457.666 65.861 14.764 56.85 32.842 104.276 106.826 115.246 175.091M177.22 426.802c-8.788-9.604-16.62-20.706-23.013-32.513-11.192-20.658-18.019-43.471-18.019-64.187 0-32.62 16.928-50.891 41.187-49.278" stroke="#fff" stroke-width="1.86" stroke-linecap="round" stroke-linejoin="round"/><path d="M226.662 306.381c12.004 11.43 22.568 25.721 30.69 41.132 10.642 20.195 17.093 42.321 17.093 62.458 0 10.348-1.7 19.257-4.8 26.532-7.3 17.161-22.356 25.325-41.158 22.185M67.97 438.02c-31.067-56.592-50.072-119.349-50.072-176.25m187.424 324.789c-31.405-18.146-61.013-44.167-87.01-74.96m274.422-33.297c0 72.129-30.536 118.393-77.478 130.625M67.807 143.474c34.234-22.909 83.175-21.354 137.515 10.039" stroke="#fff" stroke-width="1.86" stroke-linecap="round" stroke-linejoin="round"/><path d="M242.211 233.643c60.182 53.51 104.469 142.597 104.469 218.05 0 50.736-20.028 84.506-51.443 96.314m-89.915-14.649C127.245 488.255 63.953 378.578 63.953 288.37c0-67.646 35.605-105.126 86.343-100.613m24.227 116.44l169.046-111.146m25.351 201.75l169.036-111.146M131.059 678.698l169.045-111.136m28.97-172.761L498.12 283.655M45.256 312.874l108.747-71.501m175.882-6.31l70.293-42.949" stroke="#fff" stroke-width="1.86" stroke-linecap="round" stroke-linejoin="round"/></g></g><defs><clipPath id="clip0_1205_49"><path fill="#fff" transform="translate(17 127)" d="M0 0h521.863v681H0z"/></clipPath></defs></svg>

<svg width="390" height="769" viewBox="0 0 390 769" fill="none" xmlns="http://www.w3.org/2000/svg">
<mask id="mask0_1205_49" style="mask-type:alpha" maskUnits="userSpaceOnUse" x="0" y="0" width="390" height="769">
<rect width="390" height="769" fill="#D9D9D9"/>
</mask>
<g mask="url(#mask0_1205_49)">
<mask id="mask1_1205_49" style="mask-type:alpha" maskUnits="userSpaceOnUse" x="0" y="-1" width="390" height="770">
<rect y="-1" width="390" height="770" fill="#D9D9D9"/>
</mask>
<g mask="url(#mask1_1205_49)">
<path d="M513.5 1212C347.872 1212 189.028 1147.52 71.9118 1032.75C-45.2047 917.977 -111 762.312 -111 600C-111 437.687 -45.2046 282.023 71.9118 167.251C189.028 52.4784 347.872 -12 513.5 -12L513.5 600L513.5 1212Z" fill="#8ED760"/>
</g>
<g clip-path="url(#clip0_1205_49)">
<path d="M205.253 392.086C205.253 392.086 122.464 449.644 120.455 450.147C118.447 450.649 114.951 447.896 114.449 446.891C113.947 445.886 166.973 400.338 177.229 393.584C187.485 386.83 199.488 382.317 199.488 382.317L205.244 392.076L205.253 392.086Z" fill="#D6D6D6" stroke="#26144D" stroke-width="1.5" stroke-linecap="round" stroke-linejoin="round"/>
<path d="M234.861 489.743C237.324 492.728 241.331 495.511 247.773 495.936C254.532 496.39 258.878 494.062 261.601 491.395L261.621 486.37C258.907 489.047 254.552 491.395 247.773 490.921C241.486 490.487 237.507 487.849 235.035 484.94L234.852 489.733L234.861 489.743Z" fill="#4DA4FF" stroke="#26144D" stroke-width="1.5" stroke-linecap="round" stroke-linejoin="round"/>
<path d="M236.484 446.031C240.985 442.968 245.543 439.441 250.023 435.373C254.07 431.701 258.039 427.663 261.844 423.479L262.027 369.302L239.014 377.312L236.484 446.021V446.031Z" fill="#999999" stroke="#26144D" stroke-width="1.5" stroke-linecap="round" stroke-linejoin="round"/>
<path d="M235.045 484.95C237.517 487.859 241.486 490.496 247.782 490.931C254.562 491.395 258.917 489.057 261.631 486.38L261.843 423.488C258.038 427.672 254.069 431.701 250.023 435.383C245.542 439.441 240.984 442.977 236.484 446.04L235.045 484.96V484.95Z" fill="#D6D6D6" stroke="#26144D" stroke-width="1.5" stroke-linecap="round" stroke-linejoin="round"/>
<path d="M227.01 799.265C227.01 799.265 231.51 807.275 243.021 807.275C253.528 807.275 259.525 800.261 259.525 800.261L261.601 491.405C258.878 494.072 254.532 496.4 247.772 495.946C241.331 495.511 237.314 492.738 234.861 489.752L227.01 799.275V799.265Z" fill="#D6D6D6" stroke="#26144D" stroke-width="1.5" stroke-linecap="round" stroke-linejoin="round"/>
<path d="M227.639 383.66L245.021 391.835L322.557 341.784L334.57 312.749L334.561 312.72L227.639 383.66Z" fill="#999999" stroke="#26144D" stroke-width="1.5" stroke-linecap="round" stroke-linejoin="round"/>
<path d="M210.004 340.277L210.496 349.127L212.003 376.317L227.638 383.66L334.56 312.72L325.067 294.728L294.049 280.969L280.577 288.487L278.173 295.82L278.037 296.236L210.004 340.277Z" fill="#D6D6D6" stroke="#26144D" stroke-width="1.5" stroke-linecap="round" stroke-linejoin="round"/>
<path d="M278.375 295.897L317.312 313L313.806 302.487L281.04 288.226" fill="#999999"/>
<path d="M278.375 295.897L317.312 313L313.806 302.487L281.04 288.226" stroke="#26144D" stroke-width="1.5" stroke-linecap="round" stroke-linejoin="round"/>
<path d="M210.004 340.277L210.496 349.127L220.501 363.543L237.024 364.809L317.312 313L278.173 295.82L278.037 296.236L210.004 340.277Z" fill="#EFEFEF" stroke="#26144D" stroke-width="1.5" stroke-linecap="round" stroke-linejoin="round"/>
<path d="M189.744 385.573C202.655 407.526 228.323 395.429 235.257 391.603C239.564 389.989 242.316 385.361 242.316 378.385C242.316 365.978 233.615 350.895 222.867 344.702C217.169 341.407 212.042 341.281 208.488 343.745C208.468 343.755 208.44 343.765 208.42 343.794C203.331 346.847 177.045 363.978 189.744 385.583V385.573Z" fill="#EFEFEF" stroke="#26144D" stroke-width="1.5" stroke-linecap="round" stroke-linejoin="round"/>
<path d="M245.774 386.076C245.774 386.076 246.527 381.824 246.025 380.066C245.523 378.317 240.772 374.809 239.024 373.804C237.276 372.8 225.765 381.312 226.016 385.312C226.267 389.312 239.777 394.569 239.777 394.569L245.784 386.056L245.774 386.076Z" fill="#4DA4FF" stroke="#26144D" stroke-width="1.5" stroke-linecap="round" stroke-linejoin="round"/>
<path d="M242.52 383.322C239.517 383.825 234.244 389.873 235.258 391.603C236.272 393.332 238.271 397.342 243.525 402.096C246.972 405.217 357.834 484.438 358.829 484.931C359.824 485.424 363.078 480.429 363.078 479.172C363.078 477.916 290.545 403.343 276.281 395.081C262.028 386.82 242.511 383.322 242.511 383.322H242.52Z" fill="#EFEFEF" stroke="#26144D" stroke-width="1.5" stroke-linecap="round" stroke-linejoin="round"/>
<path d="M215.008 330.518C217.76 331.271 220.261 344.035 219.508 345.533C218.755 347.03 215.983 348.712 210.498 349.127C205.013 349.543 202.251 349.291 201.749 345.784C201.247 342.277 202 330.769 202 330.769L215.008 330.518Z" fill="#4DA4FF" stroke="#26144D" stroke-width="1.5" stroke-linecap="round" stroke-linejoin="round"/>
<path d="M165.235 175.099C163.487 174.848 160.735 174.345 160.233 176.104C159.731 177.863 174.989 225.904 187.494 271.703C200 317.502 203.004 337.02 203.004 337.02C203.004 337.02 209.261 339.02 212.757 336.015C216.253 333.01 215.152 318.092 211.26 303.482C200.251 262.186 165.235 175.099 165.235 175.099Z" fill="#EFEFEF" stroke="#26144D" stroke-width="1.5" stroke-linecap="round" stroke-linejoin="round"/>
<path d="M256.908 573.969C256.155 614.444 256.155 654.079 256.02 694.487" stroke="white" stroke-width="1.5" stroke-linecap="round" stroke-linejoin="round"/>
<path d="M257.363 512.961C257.363 523.174 257.363 532.779 257.141 543.562" stroke="white" stroke-width="1.5" stroke-linecap="round" stroke-linejoin="round"/>
<path d="M121.17 416.396C100.456 379.93 87.6797 339.039 87.6797 302.081" stroke="white" stroke-width="1.86" stroke-linecap="round" stroke-linejoin="round"/>
<path d="M315.681 480.931C299.091 523.165 255.934 535.185 205.312 505.937C185.611 494.555 167.041 478.235 150.73 458.93" stroke="white" stroke-width="1.86" stroke-linecap="round" stroke-linejoin="round"/>
<path d="M139.461 219.362C158.253 215.526 180.918 220.028 205.322 234.126C262.172 266.968 309.598 340.952 320.568 409.217" stroke="white" stroke-width="1.86" stroke-linecap="round" stroke-linejoin="round"/>
<path d="M177.22 426.802C168.432 417.198 160.6 406.096 154.207 394.289C143.015 373.631 136.188 350.818 136.188 330.102C136.188 297.482 153.116 279.211 177.375 280.824" stroke="white" stroke-width="1.86" stroke-linecap="round" stroke-linejoin="round"/>
<path d="M226.662 306.381C238.666 317.811 249.23 332.102 257.352 347.513C267.994 367.708 274.445 389.834 274.445 409.971C274.445 420.319 272.745 429.228 269.645 436.503C262.345 453.664 247.289 461.828 228.487 458.688" stroke="white" stroke-width="1.86" stroke-linecap="round" stroke-linejoin="round"/>
<path d="M67.9698 438.02C36.9034 381.428 17.8984 318.671 17.8984 261.77" stroke="white" stroke-width="1.86" stroke-linecap="round" stroke-linejoin="round"/>
<path d="M205.322 586.559C173.917 568.413 144.309 542.392 118.312 511.599" stroke="white" stroke-width="1.86" stroke-linecap="round" stroke-linejoin="round"/>
<path d="M392.734 478.302C392.734 550.431 362.198 596.695 315.256 608.927" stroke="white" stroke-width="1.86" stroke-linecap="round" stroke-linejoin="round"/>
<path d="M67.8066 143.474C102.041 120.565 150.982 122.12 205.322 153.513" stroke="white" stroke-width="1.86" stroke-linecap="round" stroke-linejoin="round"/>
<path d="M242.211 233.643C302.393 287.153 346.68 376.24 346.68 451.693C346.68 502.429 326.652 536.199 295.237 548.007" stroke="white" stroke-width="1.86" stroke-linecap="round" stroke-linejoin="round"/>
<path d="M205.322 533.358C127.245 488.255 63.9531 378.578 63.9531 288.37C63.9531 220.724 99.5584 183.244 150.296 187.757" stroke="white" stroke-width="1.86" stroke-linecap="round" stroke-linejoin="round"/>
<path d="M174.523 304.197L343.569 193.051" stroke="white" stroke-width="1.86" stroke-linecap="round" stroke-linejoin="round"/>
<path d="M368.92 394.801L537.956 283.655" stroke="white" stroke-width="1.86" stroke-linecap="round" stroke-linejoin="round"/>
<path d="M131.059 678.698L300.104 567.562" stroke="white" stroke-width="1.86" stroke-linecap="round" stroke-linejoin="round"/>
<path d="M329.074 394.801L498.12 283.655" stroke="white" stroke-width="1.86" stroke-linecap="round" stroke-linejoin="round"/>
<path d="M45.2559 312.874L154.003 241.373" stroke="white" stroke-width="1.86" stroke-linecap="round" stroke-linejoin="round"/>
<path d="M329.885 235.063L400.178 192.114" stroke="white" stroke-width="1.86" stroke-linecap="round" stroke-linejoin="round"/>
</g>
</g>
<defs>
<clipPath id="clip0_1205_49">
<rect width="521.863" height="681" fill="white" transform="translate(17 127)"/>
</clipPath>
</defs>
</svg>
